www/assets/icons/receipt.svg

<svg xmlns="http://www.w3.org/2000/svg" width="24" height="24" viewBox="0 0 24 24" fill='currentColor'><path d="M18 17H6v-2h12zm0-4H6v-2h12zm0-4H6V7h12zM3 22l1.5-1.5L6 22l1.5-1.5L9 22l1.5-1.5L12 22l1.5-1.5L15 22l1.5-1.5L18 22l1.5-1.5L21 22V2l-1.5 1.5L18 2l-1.5 1.5L15 2l-1.5 1.5L12 2l-1.5 1.5L9 2 7.5 3.5 6 2 4.5 3.5 3 2z"/></svg>

<svg width="24" height="24" viewBox="0 0 24 24" xmlns="http://www.w3.org/2000/svg" fill='currentColor'><path d="M18 17H6V15H18V17ZM18 13H6V11H18V13ZM18 9H6V7H18V9ZM3 22L4.5 20.5L6 22L7.5 20.5L9 22L10.5 20.5L12 22L13.5 20.5L15 22L16.5 20.5L18 22L19.5 20.5L21 22V2L19.5 3.5L18 2L16.5 3.5L15 2L13.5 3.5L12 2L10.5 3.5L9 2L7.5 3.5L6 2L4.5 3.5L3 2V22Z"/></svg>
